X:1
T:#
%%score ( 1 2 ) ( 3 4 )
L:1/8
Q:1/4=120
M:3/2
K:A
V:1 treble nm="Midi_20"
V:2 treble 
V:3 bass nm="Midi_20"
V:4 bass 
V:1
"^Round me falls the night""^William Romanis\n(1824-99)""^Adam Drese (1620-1701)\nharmonised by S. S. Wesley (1810-76)" A2 A2 G4 A4 | %1
 B12 | A2 B2 c4 B4 | A12 || c2 d2 e4 d4 | c2 B2 c4 B4 | A2 B2 c4 B4 | A2 G2 A4 G4 || A2 A2 G4 A4 | %9
 B12 | A2 B2 c4 B4 | A12 |] %12
V:2
 E2 E2 E4 (E2 F2) | G12 | F2 G2 A4 G4 | A12 || A2 A2 A4 F4 | A2 G2 (E2 F2) G4 | F2 G2 A4 G4 | %7
w: ~~~~~~Round me falls the *|night;|Sa- viour be my|light|Thro' the hours of|dark- ness shroud\- * ed|Let me see thy|
w: ~~~~Earth- ly work is *|done,|Earth- ly sounds are|none;|Rest in sleep and|si- lence seek\- * ing,|Let me hear Thee|
w: ~~~~Dark- ened now each *|ray|o'er the tra- veller's|way;|Let me know that|Thou hast found * me,|Let me feel Thine|
w: ~~~~Bless- ed heaven- ly *|Light|Shin- ing thro' earth's|night:|Voice that oft of|love has told * me;|Arms so strong to|
 F2 ^E2 (C2 ^D2) E4 || C2 ^D2 E4 (E2 F2) | G12 | E2 F2 E4 (E2 D2) | C12 |] %12
w: face un- cloud\- * ed;|Let Thy glo- ry *|shine|In this heart of *|mine.|
w: soft- ly speak\- * ing;|In my spi- rit's *|ear|Whi- sper 'I am *|near.'|
w: arms a- round * me,|Sure from ev'- ry *|ill|Thou wilt guard me *|still.|
w: clasp and hold * me:|Thou Thy watch wilt *|keep,|Sa- viour, o'er my *|sleep.|
V:3
 C2 C2 B,4 A,4 | E12 | C2 E2 E4 (E2 D2) | C12 || E2 D2 A,4 A,4 | C2 E2 E4 E4 | C2 E2 E4 E4 | %7
 C2 C2 C4 C4 || A,2 A,2 B,4 A,4 | E12 | A,2 A,2 A,4 G,4 | A,12 |] %12
V:4
 A,2 A,2 E,4 C,4 | E,12 | F,2 E,2 (C,2 D,2) E,4 | A,,12 || A,2 F,2 C,4 D,4 | A,2 E,2 A,4 E,4 | %6
 F,2 E,2 A,,4 E,4 | F,2 C,2 F,4 C,4 || F,2 F,2 E,4 C,4 | E,12 | C,2 D,2 E,4 E,4 | A,,12 |] %12

